_inc/systems/logos/wii.svg

<?xml version="1.0" encoding="utf-8"?>
<svg version="1.1" viewBox="0 0 4766.2 1435" xmlns="http://www.w3.org/2000/svg">
  <path d="M 2953.43 163.38 C 2953.43 253.47 3029.27 326.58 3122.63 326.58 C 3219.68 326.58 3295.88 254.97 3295.88 163.38 C 3295.865 71.775 3219.68 0 3122.63 0 C 3029.27 0 2953.43 73.215 2953.43 163.38" style="fill: rgb(255, 255, 255);"/>
  <rect x="2981.51" y="490.155" width="288.87" height="934.635" style="fill: rgb(255, 255, 255);"/>
  <path d="M 3540.65 163.38 C 3540.65 253.47 3616.64 326.58 3709.955 326.58 C 3807.05 326.58 3883.1 254.97 3883.1 163.38 C 3883.1 71.775 3807.05 0 3709.955 0 C 3616.64 0 3540.65 73.215 3540.65 163.38" style="fill: rgb(255, 255, 255);"/>
  <rect x="3568.64" y="490.155" width="288.945" height="934.635" style="fill: rgb(255, 255, 255);"/>
  <path d="M 2522.15 78.6 L 2268.845 1071.705 C 2268.845 1071.705 2075.165 326.265 2043.665 220.53 C 2012.165 114.615 1947.305 68.22 1855.355 68.22 C 1763.345 68.22 1698.395 114.615 1666.895 220.53 C 1635.5 326.265 1441.79 1071.705 1441.79 1071.705 L 1188.305 78.6 L 883.1 78.6 C 883.1 78.6 1176.23 1138.2 1216.085 1260.885 C 1247.075 1356.675 1320.5 1434.99 1429.355 1434.99 C 1553.795 1434.99 1611.995 1344.255 1638.935 1260.885 C 1665.605 1178.025 1855.355 478.2 1855.355 478.2 C 1855.355 478.2 2045.09 1178.025 2071.685 1260.885 C 2098.625 1344.255 2156.825 1434.99 2281.235 1434.99 C 2390.165 1434.99 2463.455 1356.675 2494.655 1260.885 C 2534.405 1138.2 2827.34 78.6 2827.34 78.6 L 2522.15 78.6 Z" style="fill: rgb(255, 255, 255);"/>
</svg>

<svg xmlns="http://www.w3.org/2000/svg" viewBox="0 0 4766.2 1435"><path d="M2953.43 163.38c0 90.09 75.84 163.2 169.2 163.2 97.05 0 173.25-71.61 173.25-163.2C3295.86 71.78 3219.68 0 3122.63 0c-93.36 0-169.2 73.22-169.2 163.38m28.08 326.77h288.87v934.63h-288.87zm559.14-326.77c0 90.09 75.99 163.2 169.3 163.2 97.1 0 173.15-71.61 173.15-163.2C3883.1 71.78 3807.05 0 3709.96 0c-93.32 0-169.31 73.22-169.31 163.38m27.99 326.77h288.94v934.63h-288.94zM2522.15 78.6l-253.3 993.1s-193.68-745.43-225.18-851.17c-31.5-105.91-96.36-152.31-188.32-152.31-92 0-156.95 46.4-188.45 152.31-31.4 105.73-225.11 851.18-225.11 851.18L1188.31 78.6H883.1s293.13 1059.6 332.99 1182.29c30.99 95.78 104.41 174.1 213.27 174.1 124.44 0 182.64-90.73 209.58-174.1 26.66-82.86 216.41-782.69 216.41-782.69s189.74 699.83 216.34 782.69c26.93 83.37 85.13 174.1 209.55 174.1 108.93 0 182.22-78.32 213.42-174.1C2534.4 1138.2 2827.34 78.6 2827.34 78.6z" style="fill:#fff"/></svg>
